SVG_Azure_All/Tag.svg

<?xml version="1.0" encoding="UTF-8" standalone="no"?>
<!-- Generated by Microsoft Visio, SVG Export Tag.svg Page-1 -->

<svg
   xmlns:dc="http://purl.org/dc/elements/1.1/"
   xmlns:cc="http://creativecommons.org/ns#"
   xmlns:rdf="http://www.w3.org/1999/02/22-rdf-syntax-ns#"
   xmlns:svg="http://www.w3.org/2000/svg"
   xmlns="http://www.w3.org/2000/svg"
   xmlns:sodipodi="http://sodipodi.sourceforge.net/DTD/sodipodi-0.dtd"
   xmlns:inkscape="http://www.inkscape.org/namespaces/inkscape"
   width="0.78744787in"
   height="0.78738755in"
   viewBox="0 0 56.696063 56.691886"
   xml:space="preserve"
   class="st3"
   version="1.1"
   id="svg36"
   sodipodi:docname="Tag.svg"
   style="font-size:12px;overflow:visible;color-interpolation-filters:sRGB;fill:none;fill-rule:evenodd;stroke-linecap:square;stroke-miterlimit:3"
   inkscape:version="0.92.5 (2060ec1f9f, 2020-04-08)"><metadata
   id="metadata40"><rdf:RDF><cc:Work
       rdf:about=""><dc:format>image/svg+xml</dc:format><dc:type
         rdf:resource="http://purl.org/dc/dcmitype/StillImage" /></cc:Work></rdf:RDF></metadata><sodipodi:namedview
   pagecolor="#ffffff"
   bordercolor="#666666"
   borderopacity="1"
   objecttolerance="10"
   gridtolerance="10"
   guidetolerance="10"
   inkscape:pageopacity="0"
   inkscape:pageshadow="2"
   inkscape:window-width="640"
   inkscape:window-height="480"
   id="namedview38"
   showgrid="false"
   inkscape:zoom="1.4193037"
   inkscape:cx="37.797791"
   inkscape:cy="37.788392"
   inkscape:window-x="0"
   inkscape:window-y="0"
   inkscape:window-maximized="0"
   inkscape:current-layer="svg36" />
	<style
   type="text/css"
   id="style2">
	<![CDATA[
		.st1 {fill:url(#grad0-6);stroke:none;stroke-linecap:butt;stroke-width:34}
		.st2 {fill:#552f99;stroke:none;stroke-linecap:butt;stroke-width:34}
		.st3 {fill:none;fill-rule:evenodd;font-size:12px;overflow:visible;stroke-linecap:square;stroke-miterlimit:3}
	]]>
	</style>

	<defs
   id="Patterns_And_Gradients">
		<linearGradient
   id="grad0-6"
   x1="0.0016624857"
   y1="68.022202"
   x2="56.69572"
   y2="68.022202"
   gradientTransform="scale(1.0000383,0.99996172)"
   gradientUnits="userSpaceOnUse">
			<stop
   offset="0"
   stop-color="#c69aeb"
   stop-opacity="1"
   id="stop4" />
			<stop
   offset="0.09"
   stop-color="#bb90e4"
   stop-opacity="1"
   id="stop6" />
			<stop
   offset="0.49"
   stop-color="#926bc9"
   stop-opacity="1"
   id="stop8" />
			<stop
   offset="0.81"
   stop-color="#7854b8"
   stop-opacity="1"
   id="stop10" />
			<stop
   offset="1"
   stop-color="#6f4bb2"
   stop-opacity="1"
   id="stop12" />
		</linearGradient>
	</defs>
	<g
   id="g34"
   transform="translate(-34.001848,-34.003898)">
		<title
   id="title16">Page-1</title>
		<g
   id="group803-1"
   transform="translate(34,-34.0157)">
			<title
   id="title18">Tag</title>
			<g
   id="group804-2">
				<title
   id="title20">g6</title>
				<g
   id="shape805-3">
					<title
   id="title22">path2</title>
					<path
   d="M 56.15,76.34 48.47,68.6 a 1.86188,1.89286 -180 0 0 -1.38,-0.58 l -14.22,0.55 a 1.66927,1.69705 -180 0 0 -1.31,0.56 L 0.55,100.52 a 1.89398,1.9255 -180 0 0 0,2.71 l 20.67,20.92 a 1.92608,1.95813 -180 0 0 2.7,0 l 31.1,-31.43 a 1.86188,1.89286 -180 0 0 0.55,-1.21 l 1.12,-13.67 a 1.82977,1.86023 -180 0 0 -0.54,-1.5 z m -9.25,5.12 a 3.46694,3.52464 0 1 1 3.47,-3.49 3.43484,3.49201 0 0 1 -3.47,3.49 z"
   class="st1"
   id="path24"
   inkscape:connector-curvature="0"
   style="fill:url(#grad0-6);stroke:none;stroke-width:34;stroke-linecap:butt" />
				</g>
				<g
   id="shape806-7"
   transform="translate(42.5872,-42.2969)">
					<title
   id="title27">path4</title>
					<path
   d="m 4.31,114 a 6.16345,6.26603 -180 1 0 6.2,6.27 6.19555,6.29866 -180 0 0 -6.2,-6.27 z m 3.41,6.95 a 3.46694,3.52464 0 1 1 -4.08,-4.14 3.46694,3.52464 0 0 1 4.08,4.14 z"
   class="st2"
   id="path29"
   inkscape:connector-curvature="0"
   style="fill:#552f99;stroke:none;stroke-width:34;stroke-linecap:butt" />
				</g>
			</g>
		</g>
	</g>
</svg>

<?xml version="1.0" encoding="UTF-8" standalone="no"?>
<!DOCTYPE svg PUBLIC "-//W3C//DTD SVG 1.1//EN" "http://www.w3.org/Graphics/SVG/1.1/DTD/svg11.dtd">
<!-- Generated by Microsoft Visio, SVG Export Tag.svg Page-1 -->
<svg xmlns="http://www.w3.org/2000/svg" xmlns:xlink="http://www.w3.org/1999/xlink" xmlns:ev="http://www.w3.org/2001/xml-events"
		width="1.73195in" height="1.73207in" viewBox="0 0 124.7 124.709" xml:space="preserve" color-interpolation-filters="sRGB"
		class="st3">
	<style type="text/css">
	<![CDATA[
		.st1 {fill:url(#grad0-6);stroke:none;stroke-linecap:butt;stroke-width:34}
		.st2 {fill:#552f99;stroke:none;stroke-linecap:butt;stroke-width:34}
		.st3 {fill:none;fill-rule:evenodd;font-size:12px;overflow:visible;stroke-linecap:square;stroke-miterlimit:3}
	]]>
	</style>

	<defs id="Patterns_And_Gradients">
		<linearGradient id="grad0-6" x1="0" y1="0" x2="1" y2="0" gradientTransform="rotate(90 0.5 0.5)">
			<stop offset="0" stop-color="#c69aeb" stop-opacity="1"/>
			<stop offset="0.09" stop-color="#bb90e4" stop-opacity="1"/>
			<stop offset="0.49" stop-color="#926bc9" stop-opacity="1"/>
			<stop offset="0.81" stop-color="#7854b8" stop-opacity="1"/>
			<stop offset="1" stop-color="#6f4bb2" stop-opacity="1"/>
		</linearGradient>
	</defs>
	<g>
		<title>Page-1</title>
		<g id="group788-1" transform="translate(34,-34.0157)">
			<title>Tag</title>
			<g id="group789-2">
				<title>g6</title>
				<g id="shape790-3">
					<title>path2</title>
					<path d="M56.15 76.34 L48.47 68.6 A1.86188 1.89286 -180 0 0 47.09 68.02 L32.87 68.57 A1.66927 1.69705 -180 0
								 0 31.56 69.13 L0.55 100.52 A1.89398 1.9255 -180 0 0 0.55 103.23 L21.22 124.15 A1.92608 1.95813 -180
								 0 0 23.92 124.15 L55.02 92.72 A1.86188 1.89286 -180 0 0 55.57 91.51 L56.69 77.84 A1.82977 1.86023
								 -180 0 0 56.15 76.34 ZM46.9 81.46 A3.46694 3.52464 0 1 1 50.37 77.97 A3.43484 3.49201 0 0 1 46.9
								 81.46 Z" class="st1"/>
				</g>
				<g id="shape791-7" transform="translate(42.5872,-42.2969)">
					<title>path4</title>
					<path d="M4.31 114 A6.16345 6.26603 -180 1 0 10.51 120.27 A6.19555 6.29866 -180 0 0 4.31 114 ZM7.72 120.95 A3.46694
								 3.52464 0 1 1 3.64 116.81 A3.46694 3.52464 0 0 1 7.72 120.95 Z" class="st2"/>
				</g>
			</g>
		</g>
	</g>
</svg>
